X:161
T:Reel 161
M:4/4
K:Dmaj
L:1/8
A|F2DF A2GF|EA,A,B, CDEG|FDDF A2AF|GABc dBAG|FDDF A2GF|EA,A,B, CDEG|FDFD d2Ad|cABc d2|de|fdec fdef|edef gfed|fded fded|cABc d2de|fded fded|cdef gfgb|afge fded|cABc dBAG|
